X:0
T:If Ever I Marry
F:http://www.vwml.org/record/CJS2/10/665
S:Mrs Pavey of Cheddar, Somerset
Z:transcribed by Alice Baillie
M:3/4
L:1/4
K:G
D | G G G | G d d | c A A | (B G) D | G G G |  
w:If e-ver I ma-rry a milk-maid is mine_ For she will get
G d d | c A F | G2 d/ d/ |  
w:up in the morn-ing be-time She's so 
d B g | e c A | d B G | d2 G/ G/ |  
w:fair in com-plex-ion She'll make a man smile So I'll
c A d | B G d | c A F | G2 || 
w:have one I love if I live the less while

